X:19085
T:Xiraldilla (CT 450)
R:Xiraldilla
C:Tradicional
S:Msica Tradicional Asturiana, (C) Tello & Tito. Asturies, 2001.
S:http://pagina.de/MusTradAst <telloytito@asturies.org>
N:Xiraldilla, dictada por Teresa Prez Cuenya, de cincuenta y dos aos, de Bedriana, ayuntamiento de Maliayo
O:Bedriana (Maliayo)
A:Asturies
D:Un tiempu meyor [Llan de Cubel - Un tiempu meyor]
Z:Cancioneru de Torner 450
M:2/4
L:1/8
Q:1/4=160
W:La camisa del majo,
W:no tiene puos:
W:del pellejo del gtico,
W:mattico,
W:churripitipittico,
W:le haremos unos.
W:Respondi la gatfica,
W:manfica,
W:churripitipitfica,
W:con desimulo:
W:no se peina mi gatico,
W:mattico,
W:churripitipitittico,
W:para ninguno.
K:C
G
|cB cd|B2 GB|B2 BA|B2 zG|
AA AB|GF EG|G>F EG|AG AB|G>F EG|G2 GA|G2 zG|
cB cd|B>A GB|B>A Gc|
cB cd|B>A GB|(B>A) Bc|B2 zG|
AG AB|G>F EG|G>F EG|AG AB|G>F EG|G2 GA|G2 ||
